assets/svg/goods-collect-o.svg

<?xml version="1.0" encoding="UTF-8"?>
<svg width="1000px" height="1000px" viewBox="0 0 1000 1000" version="1.1" xmlns="http://www.w3.org/2000/svg" xmlns:xlink="http://www.w3.org/1999/xlink">
    <!-- Generator: sketchtool 52.4 (67378) - http://www.bohemiancoding.com/sketch -->
    <title>goods-collect-o</title>
    <desc>Created with sketchtool.</desc>
    <g id="新版图标" stroke="none" stroke-width="1" fill="none" fill-rule="evenodd">
        <g id="goods-collect-o" fill="#333333" fill-rule="nonzero">
            <g id="圆角-商品收藏-线">
                <path d="M718.526436,833.225143 L715.060975,833.333333 C716.216973,833.333333 717.372689,833.297252 718.526436,833.225143 Z M718.526436,833.225143 C717.372689,833.297252 716.216973,833.333333 715.060975,833.333333 L718.526436,833.225143 Z M749.978935,500 L739.258341,274.312317 C737.428359,245.0326 713.147824,222.222222 683.810975,222.222222 L253.472222,222.222222 C224.135373,222.222222 199.854839,245.0326 198.024857,274.312317 L166.774857,774.312317 C166.702748,775.466064 166.666667,776.62178 166.666667,777.777778 C166.666667,808.460264 191.539736,833.333333 222.222222,833.333333 L500,833.333333 L500,777.777778 L222.222222,777.777778 L253.472222,277.777778 L683.810975,277.777778 L694.485952,502.636022 L749.978935,500 Z M749.978935,500 L739.258341,274.312317 C737.428359,245.0326 713.147824,222.222222 683.810975,222.222222 L253.472222,222.222222 C224.135373,222.222222 199.854839,245.0326 198.024857,274.312317 L166.774857,774.312317 C166.702748,775.466064 166.666667,776.62178 166.666667,777.777778 C166.666667,808.460264 191.539736,833.333333 222.222222,833.333333 L500,833.333333 L500,777.777778 L222.222222,777.777778 L253.472222,277.777778 L683.810975,277.777778 L694.485952,502.636022 L749.978935,500 Z" id="Rectangle-10"></path>
                <path d="M355.902778,227.430556 L300.347222,227.430556 C300.347222,132.506614 377.298281,55.5555556 472.222222,55.5555556 C567.146164,55.5555556 644.097222,132.506614 644.097222,227.430556 L588.541667,227.430556 C588.541667,163.1891 536.463677,111.111111 472.222222,111.111111 C407.980767,111.111111 355.902778,163.1891 355.902778,227.430556 Z M500,833.333333 C484.658757,833.333333 472.222222,820.896799 472.222222,805.555556 C472.222222,790.214313 484.658757,777.777778 500,777.777778 C515.341243,777.777778 527.777778,790.214313 527.777778,805.555556 C527.777778,820.896799 515.341243,833.333333 500,833.333333 Z M722.222222,527.777778 C706.880979,527.777778 694.444444,515.341243 694.444444,500 C694.444444,484.658757 706.880979,472.222222 722.222222,472.222222 C737.563465,472.222222 750,484.658757 750,500 C750,515.341243 737.563465,527.777778 722.222222,527.777778 Z M860.997439,702.429753 L888.775216,702.429753 C888.775216,713.395027 886.48254,724.535986 882.260838,735.846444 C880.620655,740.589392 878.586882,745.334727 873.31428,754.64093 C874.720376,752.661988 874.720376,752.661988 874.917354,752.30466 C874.893637,752.344623 874.893637,752.344623 875.803529,750.677037 L875.180789,751.868932 C875.304616,751.67003 875.304616,751.67003 874.746284,752.799218 C873.440322,755.388754 872.147919,757.785523 871.288208,759.03979 C869.321292,762.491019 867.192048,765.965831 864.905658,769.465758 C852.383634,788.634046 835.308508,808.381507 814.736222,828.519303 C800.356065,842.595749 785.067817,856.083115 769.577563,868.753459 C760.375442,876.280388 743.126339,889.642605 747.814865,885.89533 C740.413312,891.759647 731.340775,894.930571 721.988562,894.930571 C712.719538,894.930571 703.725,891.870694 696.185205,885.941364 C701.045418,889.811408 683.617638,876.352087 674.43694,868.862175 C658.977387,856.24977 643.733652,842.824972 629.392734,828.795887 C608.185496,808.049785 590.705881,787.692349 578.098801,767.906559 C572.355743,758.893294 567.65864,750.040462 564.050964,741.186566 C563.80214,740.554286 563.80214,740.554286 563.653228,740.153972 C558.487817,727.122705 555.77027,714.515812 555.77027,702.40461 C555.611972,700.287132 555.555556,698.921792 555.555556,697.049194 C555.555556,634.672953 603.921329,583.333333 664.268176,583.333333 C685.003526,583.333333 705.044313,589.63446 722.216464,601.057866 C739.366767,589.633763 759.417218,583.333333 780.176268,583.333333 C840.507292,583.333333 888.888889,634.694591 888.888889,697.049194 C888.847124,699.582035 888.845539,699.678148 888.755625,701.226522 C888.761328,701.528879 888.767186,701.908861 888.775216,702.429753 L860.997439,702.429753 Z M829.978199,717.071098 C832.246894,710.981021 833.219661,706.253989 833.219661,702.429753 L860.997439,702.429753 L833.219661,702.429753 C833.224086,702.695878 833.224086,702.695878 833.205935,699.491907 C833.255237,698.622701 833.255237,698.622701 833.289749,698.072645 C833.329769,697.343148 833.329769,697.343148 833.333333,697.049194 C833.333333,664.659325 809.057938,638.888889 780.176268,638.888889 C766.318702,638.888889 752.836105,645.061926 742.806756,656.108101 L722.292738,678.70193 L701.722314,656.159444 C691.603493,645.070544 678.09558,638.888889 664.268176,638.888889 C635.369438,638.888889 611.111111,664.638777 611.111111,697.049194 C611.111111,697.152928 611.162932,699.412441 611.266575,703.827734 C611.296129,703.512447 611.298293,703.48937 611.320234,702.625555 C611.326012,707.009121 612.573522,712.795983 615.284384,719.624646 C615.540119,720.294542 615.629745,720.529317 615.680961,720.66715 C617.886741,726.010833 620.99155,731.838023 624.951583,738.052973 C634.946019,753.73843 649.819002,771.060082 668.242305,789.082783 C681.279802,801.836789 695.3047,814.188187 709.556202,825.815025 C712.956524,828.589118 717.736931,832.369675 721.957625,835.675584 C726.18122,832.357625 730.974558,828.555798 734.403506,825.75107 C748.69987,814.057275 762.783263,801.632838 775.873991,788.818588 C793.802768,771.26847 808.387195,754.401514 818.395028,739.081864 C820.080621,736.501616 821.624024,733.982866 823.81554,730.222755 C824.08211,729.809719 824.228633,729.537992 825.053382,727.979075 C825.56048,726.895261 825.56048,726.895261 826.046049,725.965157 L826.968188,724.276895 C828.137449,721.901912 829.068797,719.679466 829.978199,717.071098 Z" id="Combined-Shape"></path>
            </g>
        </g>
    </g>
</svg>

<svg width="1000" height="1000" xmlns="http://www.w3.org/2000/svg"><g fill="#333" fill-rule="nonzero"><path d="M718.526 833.225l-3.465.108c1.156 0 2.312-.036 3.465-.108zm0 0c-1.153.072-2.309.108-3.465.108l3.465-.108zM749.98 500l-10.72-225.688c-1.83-29.28-26.111-52.09-55.448-52.09H253.472c-29.337 0-53.617 22.81-55.447 52.09l-31.25 500a55.556 55.556 0 0 0-.108 3.466c0 30.682 24.873 55.555 55.555 55.555H500v-55.555H222.222l31.25-500h430.339l10.675 224.858L749.979 500zm0 0l-10.72-225.688c-1.83-29.28-26.111-52.09-55.448-52.09H253.472c-29.337 0-53.617 22.81-55.447 52.09l-31.25 500a55.556 55.556 0 0 0-.108 3.466c0 30.682 24.873 55.555 55.555 55.555H500v-55.555H222.222l31.25-500h430.339l10.675 224.858L749.979 500z"/><path d="M355.903 227.43h-55.556c0-94.923 76.951-171.874 171.875-171.874s171.875 76.95 171.875 171.875h-55.555c0-64.242-52.078-116.32-116.32-116.32-64.241 0-116.32 52.078-116.32 116.32zM500 833.334c-15.341 0-27.778-12.436-27.778-27.777 0-15.342 12.437-27.778 27.778-27.778s27.778 12.436 27.778 27.778c0 15.34-12.437 27.777-27.778 27.777zm222.222-305.555c-15.341 0-27.778-12.437-27.778-27.778s12.437-27.778 27.778-27.778S750 484.66 750 500s-12.437 27.778-27.778 27.778zM860.997 702.43h27.778c0 10.965-2.292 22.106-6.514 33.416-1.64 4.743-3.674 9.489-8.947 18.795 1.406-1.979 1.406-1.979 1.603-2.336-.023.04-.023.04.887-1.628l-.623 1.192c.124-.199.124-.199-.435.93-1.306 2.59-2.598 4.987-3.458 6.24a201.646 201.646 0 0 1-6.382 10.427c-12.522 19.168-29.597 38.916-50.17 59.053-14.38 14.077-29.668 27.564-45.158 40.234-9.203 7.527-26.452 20.89-21.763 17.142-7.402 5.865-16.474 9.036-25.826 9.036-9.27 0-18.264-3.06-25.804-8.99 4.86 3.87-12.567-9.589-21.748-17.079-15.46-12.612-30.703-26.037-45.044-40.066-21.208-20.746-38.687-41.104-51.294-60.89-5.743-9.013-10.44-17.866-14.048-26.72-.249-.632-.249-.632-.398-1.032-5.165-13.031-7.883-25.638-7.883-37.75-.158-2.117-.214-3.482-.214-5.355 0-62.376 48.365-113.716 108.712-113.716 20.736 0 40.776 6.301 57.948 17.725 17.15-11.424 37.201-17.725 57.96-17.725 60.331 0 108.713 51.362 108.713 113.716-.042 2.533-.043 2.63-.133 4.178l.02 1.203h-27.779zm-31.019 14.641c2.269-6.09 3.242-10.817 3.242-14.641h27.777-27.777c.004.266.004.266-.014-2.938.05-.87.05-.87.084-1.42.04-.729.04-.729.043-1.023 0-32.39-24.275-58.16-53.157-58.16-13.857 0-27.34 6.173-37.37 17.22l-20.513 22.593-20.57-22.543c-10.12-11.088-23.627-17.27-37.455-17.27-28.899 0-53.157 25.75-53.157 58.16 0 .104.052 2.363.156 6.779.03-.316.031-.339.053-1.202.006 4.383 1.254 10.17 3.964 16.999.256.67.346.904.397 1.042 2.206 5.344 5.31 11.171 9.27 17.386 9.995 15.685 24.868 33.007 43.291 51.03 13.038 12.754 27.063 25.105 41.314 36.732 3.4 2.774 8.18 6.555 12.402 9.86 4.223-3.317 9.017-7.12 12.446-9.924 14.296-11.694 28.38-24.118 41.47-36.932 17.929-17.55 32.513-34.417 42.521-49.737 1.686-2.58 3.229-5.1 5.42-8.86.267-.412.414-.684 1.238-2.243.507-1.084.507-1.084.993-2.014l.922-1.688a61.703 61.703 0 0 0 3.01-7.206z"/></g></svg>
